!!!COM: Bach, Johann Sebastian
!!!OPR: Joh. Seb. Bachs vierstimmige Choralgesänge
!!!XEN: Four-part Chorales
!!!OTL: 45. Diess sind die heil'gen zehn Gebot'
!!!SCT: BWV 298
!!!SCA: Thematisch-systematisches Verzeichnis der musikalischen Werke Johann Sebastian Bach: Bach-Werke-Verzeichnis (Schmieder)
!!!YOR: Bach Gesellschaft Edition xxxix
!!!ENC: Steven Rasmussen
!!!CDT: 1685/3//-1750/7/28/
!!!OCY: Deutschland
!!!YEC: Copyright (c) 1994, 2000 Center for Computer Assisted Research in the Humanities
!!!YEM: Rights to all derivative editions reserved
!!!YEN: United States of America
**kern	**silbe	**kern	**kern	**silbe	**kern	**silbe
*I:[SOPRANO]	*I:[SOPRANO]	*I:[ALTO]	*I:[TENORE]	*I:[TENORE]	*I:[BASSO]	*I:[BASSO]
*clefG2	*	*clefG2	*clefGv2	*	*clefF4	*
*k[]	*	*k[]	*k[]	*	*k[]	*
*C:	*	*C:	*C:	*	*C:	*
*M4/4	*	*M4/4	*M4/4	*	*M4/4	*
4g	Diess	4d	4B	.	8GL	.
.	.	.	.	.	8FJ	.
=1	=1	=1	=1	=1	=1	=1
4g	sind	4e	4c	.	8EL	.
.	.	.	.	.	8DJ	.
4g	die	4f	4d	.	8CL	.
.	.	.	.	.	8BBJ	.
4g	heil'-	4e	4d	.	8CL	.
.	.	.	.	.	8DJ	.
4g	-gen	4e	4c	.	8EL	.
.	.	.	.	.	8FJ	.
=2	=2	=2	=2	=2	=2	=2
8gL	zehn	4.d	8BL	.	4G	.
8aJ	.	.	8AJ	.	.	.
4b	Ge-	.	4G	.	4GG	.
.	.	16eLL	.	.	.	.
.	.	16fJJ	.	.	.	.
4cc;	-bot,	4e;	4G;	.	4C;	.
4cc	die	8fL	8AL	.	8FL	.
.	.	8gJ	8cJ	.	8EJ	.
=3	=3	=3	=3	=3	=3	=3
4dd	uns	8aL	4f	.	8DL	.
.	.	8gJ	.	.	8EJ	.
4dd	gab	4f	8AL	.	8FL	.
.	.	.	8BJ	.	8GJ	.
4cc	un-	4.f	4c	.	8AL	.
.	.	.	.	.	8BJ	.
4g	-ser	.	4c	.	4c	.
.	.	8e	.	.	.	.
=4	=4	=4	=4	=4	=4	=4
8gL	Her-	4d	8BL	.	8GL	.
8aJ	.	.	8AJ	.	8FJ	.
4b	-re	8gL	4G	.	8EL	.
.	.	8fJ	.	.	8DJ	.
4cc;	Gott	4e;	4G;	.	4C;	.
4cc	durch	4f	4A	.	8FL	.
.	.	.	.	.	8EJ	.
=5	=5	=5	=5	=5	=5	=5
4dd	Mo-	4f	4A	.	(8D	.
.	.	.	.	.	4C)	.
4dd	-se,	4f	4d	.	.	.
.	.	.	.	.	8BB	.
4cc	sei-	4f	4G	.	8CL	.
.	.	.	.	.	8DJ	.
4g	-nen	4e	8cL	.	8EL	.
.	.	.	8B-J	.	8DJ	.
=6	=6	=6	=6	=6	=6	=6
4a	Die-	8eL	4A	.	(8C#	.
.	.	8fJ	.	.	4D)	.
4g	-ner	4e	8B-L	.	.	.
.	.	.	8AJ	.	8C#	.
4f;	treu,	4d;	4A;	.	4D;	.
4g	hoch	4e	4c	.	8CnL	.
.	.	.	.	.	8BBJ	.
=7	=7	=7	=7	=7	=7	=7
4a	auf	4f	8cL	.	(8AA	.
.	.	.	8dJ	.	4A)	.
4b	dem	8fL	4d	.	.	.
.	.	8eJ	.	.	8G#	.
2cc	Berg	2e	2c	.	2A	.
=8	=8	=8	=8	=8	=8	=8
8b-L	Si-	4f#	8dL	.	4D	.
8aJ	.	.	8cJ	.	.	.
8gL	-na-	8gL	8B-L	.	8EL	.
8aJ	.	8dJ	8AJ	.	8F#J	.
4b-;	-i.	4d;	4G;	.	4G;	.
4a	Ky-	4fn	4A	Ky-	8DL	.
.	.	.	.	.	8CJ	.
=9	=9	=9	=9	=9	=9	=9
4g	-rie	4f	4.d	-rie	8BBL	.
.	.	.	.	.	8GGJ	.
4g	e-	4e	.	.	4C	e-
.	.	.	[8c	e-	.	.
2g;	-leis'.	2d;	8cL]	.	2GG;	-leis'.
.	.	.	16BL	.	.	.
.	.	.	16AJJ	.	.	.
.	.	.	4B;	-leis.	.	.
==|!	==|!	==|!	==|!	==|!	==|!	==|!
*-	*-	*-	*-	*-	*-	*-
!!!RWG: Key is interpreted using the Humdrum key tool.
!!!END: 1994/05/17
!!!EMD: Converted from MuseData to Humdrum Dec 19, 2000, by Andreas Kornstaedt using muse2kern.
!!!EED: Craig Stuart Sapp
!!!EEV: 2024/03/31
!!!ONB: Some non-unicode characters
